projects/seb-pictograms/svg/regular/72-Picto-Regular_black.svg

<svg xmlns="http://www.w3.org/2000/svg" viewBox="0 0 170 170"><path d="M49.1 89.7a29.2 29.2 0 10-29.3-29.2V79A29.3 29.3 0 0049 108.2v-6A23.3 23.3 0 0125.8 79v-.8a29.2 29.2 0 0023.3 11.5zm0-52.5a23.2 23.2 0 11-23.3 23.3 23.3 23.3 0 0123.3-23.2zm37.4 50.9a29.3 29.3 0 00-29.2 29.2v18.5a29.2 29.2 0 0058.5 0v-18.4a29.3 29.3 0 00-29.3-29.3zm-23.2 47.7v-.7a29.2 29.2 0 0020.2 11.4v12.4a23.3 23.3 0 01-20.2-23.1zm26.2 10.6a29 29 0 006.6-1.5v12a23 23 0 01-6.6 1.9zm20.2-10.6a23.2 23.2 0 01-7.6 17.2v-11a29.4 29.4 0 007.6-7zm-23.2 4.8a23.2 23.2 0 1123.2-23.2 23.3 23.3 0 01-23.2 23.2zM120.9 5a29.3 29.3 0 00-29.2 29.2v18.5a29.2 29.2 0 0058.5 0V34.2A29.3 29.3 0 00120.9 5zm0 6a23.2 23.2 0 11-23.2 23.2A23.3 23.3 0 01120.9 11zm-3 52.3v12.4a23 23 0 01-6.6-1.9v-12a29 29 0 006.6 1.5zM97.7 52.7v-.8a29.5 29.5 0 007.6 7v10.9a23.2 23.2 0 01-7.6-17.1zm46.5 0a23.3 23.3 0 01-20.2 23V63.3a29.2 29.2 0 0020.2-11.4z"/></svg>

<svg id="PIKTO_REGULAR" xmlns="http://www.w3.org/2000/svg" viewBox="0 0 170 170"><title>regular_black</title><path d="M49.1,89.7A29.2,29.2,0,1,0,19.8,60.5V79a29.3,29.3,0,0,0,29.2,29.2v-6A23.3,23.3,0,0,1,25.8,79v-.8A29.2,29.2,0,0,0,49.1,89.7Zm0-52.5A23.2,23.2,0,1,1,25.8,60.5,23.3,23.3,0,0,1,49.1,37.3Z"/><path d="M86.5,88.1a29.3,29.3,0,0,0-29.2,29.2v18.5a29.2,29.2,0,0,0,58.5,0V117.4A29.3,29.3,0,0,0,86.5,88.1ZM63.3,135.8v-.7a29.2,29.2,0,0,0,20.2,11.4v12.4A23.3,23.3,0,0,1,63.3,135.8Zm26.2,10.6a29,29,0,0,0,6.6-1.5v12a23,23,0,0,1-6.6,1.9Zm20.2-10.6a23.2,23.2,0,0,1-7.6,17.2V142a29.4,29.4,0,0,0,7.6-7Zm-23.2,4.8a23.2,23.2,0,1,1,23.2-23.2A23.3,23.3,0,0,1,86.5,140.6Z"/><path d="M120.9,5A29.3,29.3,0,0,0,91.7,34.2V52.7a29.2,29.2,0,0,0,58.5,0V34.2A29.3,29.3,0,0,0,120.9,5Zm0,6A23.2,23.2,0,1,1,97.7,34.2,23.3,23.3,0,0,1,120.9,11Zm-3,52.3V75.7a23,23,0,0,1-6.6-1.9v-12A29,29,0,0,0,117.9,63.3ZM97.7,52.7v-.8a29.5,29.5,0,0,0,7.6,7V69.8A23.2,23.2,0,0,1,97.7,52.7Zm46.5,0a23.3,23.3,0,0,1-20.2,23V63.3a29.2,29.2,0,0,0,20.2-11.4Z"/></svg>
